X: 18011
T: Hughie's Cap
R: reel
M: 4/4
K: Cdorian
Gccd edcB|{GA}G2 FE {F}EDCB,|G,Gcd edce|cd (3BBB BgfB|
Gccd edcB|{GA}G2 FE {F}EDCB,|G,CCD EGcG|1 c{GA}GFE DE{F}EF:|2 c{GA}GFD EFGc||
BG{FG}FE B,EGB|ccAF CFAc|dB {d}B2 gfed|egfe cBFG|
BG{FG}FE B,EGB|ccAF CFAc|dBBg gfed|1 ecBG DE{F}EG:|2 ecBG DE{F}EF||

